icons/folder-nuxt.svg

<svg width="24" height="24" viewBox="0 0 24 24" fill="none" xmlns="http://www.w3.org/2000/svg">
<g clip-path="url(#clip0)">
<path d="M10 4H4C2.89 4 2 4.89 2 6V18C2 19.097 2.903 20 4 20H20C21.097 20 22 19.097 22 18V8C22 7.46957 21.7893 6.96086 21.4142 6.58579C21.0391 6.21071 20.5304 6 20 6H12L10 4Z" fill="#009688"/>
<path d="M14.498 19.078H10L15.842 9L21.685 19.078H17.215" fill="#41B883"/>
<path d="M21.11 19.078H24.21L19.142 10.368L14.117 19.078H17.217" fill="#328170"/>
<path d="M19.27 19.078H21.553L17.819 12.662L14.117 19.078H16.401" fill="#35495E"/>
</g>
<defs>
<clipPath id="clip0">
<rect width="24" height="24" fill="white"/>
</clipPath>
</defs>
</svg>

<svg width="24" height="24" fill="none" xmlns="http://www.w3.org/2000/svg"><g clip-path="url(#clip0)"><path d="M10 4H4c-1.11 0-2 .89-2 2v12c0 1.097.903 2 2 2h16c1.097 0 2-.903 2-2V8a2 2 0 0 0-2-2h-8l-2-2z" fill="#009688"/><path d="M14.498 19.078H10L15.842 9l5.843 10.078h-4.47" fill="#41B883"/><path d="M21.11 19.078h3.1l-5.068-8.71-5.025 8.71h3.1" fill="#328170"/><path d="M19.27 19.078h2.283l-3.734-6.416-3.702 6.416h2.284" fill="#35495E"/></g><defs><clipPath id="clip0"><path fill="#fff" d="M0 0h24v24H0z"/></clipPath></defs></svg>
